c1 $ jux (rev) $ sound "{[perc hh] [bass hh] perc sn, ~ ~ hh [hh hh] [hh hh hh]}"
c1 silence

c2 $ randslice 8 $ sound "egg? egg? egg? egg?" # up "-5 -7 -12 -2" # gain "1.2"
c2 silence

c3 $ jux (iter 4) $ sound "bass [bass bass] ~" # up "-2 -6 0 7"
c3 silence

c4 $ slow 2 $ sound "{~ ~ ~ ~, metal metal metal}" -- # up "5 7 3" # gain "0.8"
c4 silence
hush

c3 $ loopAt 4 $ slow 16 $ randslice 4 $ chop 8 $ sound "xrf" # gain "0.8" # up "-5 -7 -12 -7"
c3 silence

c4 $ iter 7 $ slow 16 $ randslice 8 $ striate 8 $ sound "pers"
c4 silence

c5 $ sound "perc" # gain "0.6"
c5 silence

--midi testing
import Sound.Tidal.MIDI.Context

displayOutputDevices >>= putStrLn

devices <- midiDevices

m1 <- midiStream devices "QUAD-CAPTURE" 1 synthController

m2 <- midiStream devices "QUAD-CAPTURE" 2 synthController

m1 $ iter 3 $ often (rev) $ midinote "" # dur "1"
m1 silence

m2 $ slow 2 $ midinote "{[36 42] [38 42] 50 [36 40], ~ ~ [60 61] [50 47] 43}"
m2 silence

m1 $ midinote "60"
m1 silence
hush

c1 $ sound "egg"
c1 silence
