c1 $ slow 2 $ randslice 4 $ sound "cdn:1 cdn:2 cdn:3 cdn:4 cdn:5 cdn:6 cdn:7 cdn:8" # up "1 -2 7" # delay "0.2" # gain "0.5"
c1 silence

c2 $ slow 2 $ sound "feel [feel feel] feel ~" # gain "0.4"
c2 silence

c4 $ jux (rev) $ sound "bass*4?" # iter 3 (up "1 5 12 7") # gain "0.5"


c3 $ jux (density 8) $ sound "cdn:8/2" # speed "0.25 -0.25" # gain "0.6"
c3 silence

c4 $

hush
