-- bit thin - can add some ideas to flesh things out

c1 $ jux (slow 4) $ sound "{bskick:1 ~ bskick:1 ~, ~ ~ ~ [bshihat*3] ~}" # cut 1

c1 silence

c4 $ degradeBy 0.9 $ every 4 (rev) $ vowel "[a[ e]i]u[[e[ u o o[i]]e[u[]e]u]a a]"
  # sound "bsguitar:4"
  # cut 1
  # gain "0.6"

c4 silence

c2 $ randslice 32 $ sound "{bsvocals:11 ~ ~, ~ bsvocals:11 ~ ~, ~ ~ bsvocals:11 ~ ~}" # gain "0.7" # cut 2

hush
