1.1053 1.1839 1.1666 1.1852 1.2431

0.5302 0.5772 0.784 0.8728 0.8574

0.1226241 0.1518646 0.1696783 0.1760351

0.4603304 0.4609579 0.4396602 0.4499443 0.4697699

0.7185992 0.7104468 0.7257602 0.747951 0.7195218

0.2995173 0.2888294 0.2848116 0.283944 0.3003021

ATOM 1 N ALA 1 26.469 31.379 17.775 1 0 N
ATOM 2 H1 ALA 1 27.469 31.539 17.734 1 0 H
ATOM 3 H2 ALA 1 26.039 32.109 18.314 1 0 H
ATOM 4 H3 ALA 1 26.339 30.489 18.235 1 0 H
ATOM 5 CA ALA 1 26.079 31.329 16.355 1 0 C

50 CD GLU 4 32.229 40.189 14.035 1 0 C
51 OE1 GLU 4 32.739 39.909 15.135 1 0 O
52 OE2 GLU 4 32.949 40.809 13.215 1 0 O
53 C GLU 4 32.399 37.459 12.605 1 0 C
54 O GLU 4 33.019 36.759 13.395 1 0 O

cps 1.6

c1 $ speed (every 3 (+ "0.4396602 0.4499443 0.4697699") "0.1226241 0.1518646 0.1696783") # sound "sweden"

c2 $ speed (every 3 (* "32.229 40.189 14.035") "0.1226241 0.1518646 0.1696783") # sound "australia" # cut 1

c3 $ slowspread (loopAt) [40,14] $ chop 32 $ sound "belgium belgium" # delay "<0.1226241 0.1518646 0.1696783 0.1760351>"

c2 $ speed (every 3 (+ "0.4396602 0.4499443 0.4697699") "0.1226241 0.1518646 0.1696783") # sound "sweden"

c3 $ speed (every 3 (+ "0.4396602 0.4499443 0.4697699") "0.1226241 0.1518646 0.1696783") # sound "australia" # cut 1

c4 $ sound "[bskick:1, bsperc:3/2]"

cps 1.6

hush

solo $ c1 $ slow 2 $ sound "armenia:1 armenia:2" # cut 1

c1 silence

c2 $ slowspread (density) [1,2,3] $ sound "australia australia" # gain "0.6"

c2 silence

c3 $ sound "bskick:1*2"

c4 $ sound "cyprus" # gain 2

------

-- skeletons

c3 $ sound "azerbaijan/2" # cut 1

c4 $ sound "{bd*3, ~ cp/2}"

solo $ c5 $ loopAt 2 $ sound "azerbaijan:1"

c5 silence

-----

-- all along in the danger zone - gap at start

c1 $ loopAt 16 $ sound "belgium"

c1 silence
-- v slow

c2 $ loopAt 7 $ chop 32 $ sound "belgium belgium belgium belgium"

c2 silence

c4 $ sound "bskick:1 bskick:1 bskick:1 ~"

c4 silence

----

hush

c1 $ sound "bulgaria/3" # delay "0.7104468"

c2 $ sound "{bskick:1 bsperc:3 ~, ~ hh [hh hh] hh}" # gain "0.8"

-----

-- well euro - need to think about this one

-- c1 $  slowspread (loopAt) [1,2,4] $ sound "denmark" # vowel "<a p>"

-- c1 silence

-- c2 $ sound "bskick:1"

------

c1 $ randslice 16 $ sound "france*4" # cut 1

------

-- well euro!!

c1 $ loopAt 12 $ chop 32 $ sound "fyr fyr" # delay "0.8"

c1 silence

c2 $ sound "{~ [~ bshihat], [~ bskick:1/4]}"


c3 $  degradeBy 0.4 $ speed (every 2 (+ "0.5302 0.5772 0.784 0.8728 0.8574") "1.1053 1.1839 1.1666 1.1852 1.2431") # sound "sweden"

c4 $ sound "bsperc:3"

1.1053 1.1839 1.1666 1.1852 1.2431

0.5302 0.5772 0.784 0.8728 0.8574

----

hush

-- hit

c1 $ degradeBy 0.5302 $ sound "georgia*5" # iter 2 (speed "<[1 3 5], [7 2 4]>")

c2 $ sound "{bskick:1 ~ bskick:1,  ~ bsperc:3 ~ ~ ~}"

hush

c3 $ slowspread (density) [1,2,4] $ sound "greece" # speed "<1 2 4>"

1.1053 1.1839 1.1666 1.1852 1.2431

0.5302 0.5772 0.784 0.8728 0.8574


c1 $ sound "latvia"

hush


-----

c4 $ sound "hungary/4" # cut 1

c1 silence

c2 $ sound "hungary:1/4 hungary:2/3"


c3 $ sound "{bskick:1 ~ bskick:1,  ~ bsperc:3 ~ ~ ~}"

c4 $ randslice 4 $ sound "hungary:3*4" # iter 3 (up "1 3 5") # vowel "<a o a>"

-----

-- complentary synth

hush

c1 $ degradeBy 0.4 $ jux (density 2) $ sound "ireland [ireland:1 ireland]" # up "<1 5 9>" # vowel "<a o>"

c3 $ sound "{bskick:1 ~ bskick:1,  ~ bsperc:3 ~ ~ ~}"


c3 silence
-----

c1 $ slow 2 $ jux (# vowel "a o a") $ sound "israel*3"
  # up "<[1 3 2] [3 5 4] [2 4 6] [5 1 7]>"

c2 $ sound "{~ ~ ~ ~, bskick ~ cp*2 ~ bskick ~ ~ ~}"

c3 $ degradeBy 0.5 $ slowspread (loopAt) [2,4] $ sound "israel:1"

-----

hush


c2 $ slow 2 $ sound "{[bshihat cp] bshihat bshihat bshihat, bottle ~ ~ [can can] italy}"

hush

c3 $ loopAt 8 $ sound "latvia" # gain "1.8"

----

hush

c1 $ loopAt 3 $ sound "moldova"

c1 silence

c2 $ loopAt 6 $ sound "montenegro"

c3 $ sound "bskick:1"

c4 $ loopAt 3 $ sound "montenegro:1"

c3 $ sound "bskick:1 ~ bsperc:3"

-----


hush

--creepy stuff

c1 $ jux (# speed "-1") $ sound "poland/4 poland:1/4 poland:2/4 poland:3"

c2 $ slowspread (density) [1,2,4] $ sound "bskick:1"

--

hush

c1 $ every 4 (density 4) $ sound "romania"

c2 $ jux (# up "<-1 -7 -5 -2>") $ every 6 (density 6) $ sound "sanmarino"

-----

hush

c3 $ sound "serbia/2"

c4 $ sound "serbia:1" # gain "0.8" # vowel "a"

----

hush

c1 $ degradeBy 0.4 $ sound "{sweden sweden sweden}" # up "<-1 5 3>"


c1 silence
----

c2 $ loopAt 6 $ sound "[switzerland*3]/2" # delay "0.4"

c3 $ loopAt 15 $ sound "switzerland:1"

c4 $ sound "bsnoise:4/3 bskick ~"

hush
------

c1 $ every 2 $ loopAt 16 $ sound "uk"

c2 $ sound "bskick:8"

c3 $ sound "[can can] ~"

----

hush








---
