d1 $ density "<1 2> <0.3 0.16 0.8>"
  $ sound "tink*64"
  # gain "0.6"
  # cutoff 1200
  # cut 1
  # gain "<1 0 0 1 0.5 1 0> <0 1 0.5 1 0>"

d2 $ loopAt "<16 8 4>"
  $ chop 64
  $ sound "bsbass"
  # gain "<1 1 0.5 0> <0.5 1 0 1 0>"
