cps (80/120)

d2 $ loopAt 16 $ striate "<64 16 4>" $  sound "steps:3*4" # cut 2

hush

d3 $ slow 2 $  loopAt "<4 2 8>" $ striate 16 $ sound "steps:1*8" # cut 1


d4 $ loopAt 64 $ sound "steps:2"

solo "d4"
