linput = pI "linput"

lname = pS "lname"


d1 $ slow 8 $ s "looper" # n "<0 5 2 4 3 7 6 1>"

d1 silence

hush

MY HANDS ARE SO COLD!!!!!!!!!!!!!!!!!!!!!!!!!!!

d5 $ slow 4 $ sound "loop" # n "<0 1 2 3 4 5 6 7>" # cut 1

hush
