setcps 0.1

linput = pI "linput"

lname = pS "lname"

d5 $ s "looper" # n "<0 1 2 3 4 5 6 7>"

d5 silence

d1 $ sound "drum"

hush

d3 $ slow 4 $ chop 1 $ striate 1 $ sound "loop" # n "0 5 6 4 2 1 3 7" # vowel "a" # gain 0.8 # hpf 2100

d3 $ sound "loop" # n "<0 5 6 3 2>"

hush
