

once $ sound "hnoise:1"

d1 $ loopAt 2 $ slow 16 $ n (run 8) # sound "emufx"

d2 $ degradeBy (slow 8 $ saw) $ sound "hbird:1*64" # speed 0.125 -- # pan perlin # hpf (range 600 3000 perlin)

d2 silence

once $ sound "bir" # n "[0,1,2,3,4,5,6,7]"

d1 $ silence

hush

d3  $ degradeBy (slow 8 $ saw)   $slow 4 $ sound "fi" # shape 0.4 # n (choose ([0,1]))

d4 $degradeBy (slow 8 $ range 1 0 saw) $ sound "dig*32"   # n (irand 36)   # pan perlin  # hpf (range 600 3000 perlin)

once $ sound "bbb:2"
