
setcps (150/60/4)


once $ n "[0,1,2,3,4,5,6,7,8]" # sound "[st]"

d6 $ randslice 64 $ sound "pebbles*8" # legato "0.5!7 1" # gain "<1 1 1 0>"

d1 $ someCycles (chunk 4 (hurry 4)) $ sound "9rs*8" # pan (slow 8 sine) # gain "<1 0 0 0>"

d2 $ off (1/8) (gap 4) $ chop 2
$ up (scale "ritusen" "<<0 3 5> <0 7 5> 3 5>") # sound "emub emub:1"
# legato "[1 0.5]" # gain "<1 1 0 0 0>"

d3 $ jux (hurry "<0.5!3 2>") $ off (1/8) (striate 2) $ sound "kick*4" # gain "<1 0 1 0 1 0 0>"

d4 $ sound "jawharp/8" # speed 0.5

d5 $ " airhorn*16 ~" # cut 1 # gain "<0 0 0 1>"

hush

-- ci
use w slice & speed

-- cry
@150 hh
0 - gug
1-5 - 2/4 loops
6 - long vox loop (8/4)
7 - short vox loop (4/2)

-- aa
0,8 - cry
2-6 ds
6 - hit
7,18 - sleep
9-11 - vox hit $
12-13 - vox loop
14-15 - t loop
16 - synth loop
17 drum loop

hush
